!!!COM:	Bach, Johann Sebastian
!!!OMV:	Christus, der uns delig macht
!!!OTL:	Christus, der uns delig macht
**kern	**fb	**kern	**kern	**kern	**kern
*part5	*part5	*part4	*part3	*part2	*part1
*staff5	*	*staff4	*staff3	*staff2	*staff1
*I"Continuo	*	*I"Voice	*I"Voice	*I"Voice	*I"Voice
*I'Cont.	*	*I'V	*I'V	*I'V	*I'V
*clefF4	*	*clefF4	*clefGv2	*clefG2	*clefG2
*Trd0c0	*	*	*	*	*
*k[]	*	*k[]	*k[]	*k[]	*k[]
*M4/4	*	*M4/4	*M4/4	*M4/4	*M4/4
=	=	=	=	=	=
4E	#	4E	4B	4g#X	4ee
4E	.	4E	4B	4g#	4ee
4A	.	4A	4c	4a	4ee
4G	6	4Gn	8BL	4b	4ee
.	.	.	8cJ	.	.
=3	=3	=3	=3	=3	=3
4F	6	4F	8dL	4a	4dd
.	.	.	8eJ	.	.
8EL	6 4	8EL	4f	4a	4cc
8DJ	.	8DJ	.	.	.
2E;	5 #	2E;	2B;	2g#X;	2b;
=4	=4	=4	=4	=4	=4
4A	5	4A	4A	8eL	4cc
.	#6\	.	.	8f#XJ	.
4G	-	4G	4B-X	4gn	4dd
4C#X	-r7 5	4C#X	4B-	4g	4ee
4C#	6 5	4C#	4A	8fnL	4ee
.	.	.	.	8eJ	.
=5	=5	=5	=5	=5	=5
4D	n	4D	2A	4f	4dd
4AA	.	4AA	.	4e	4cc
2E;	#	2E;	2G#X;	2e;	2b;
=6	=6	=6	=6	=6	=6
4A	.	4A	4c	4e	4a
4G#X	6	4G#X	4B	4e	4b
4A	5	4A	8AL	4e	4cc
.	.	.	8BJ	.	.
4F	5	4F	8cL	4f	4a
.	6	.	8dJ	.	.
=7	=7	=7	=7	=7	=7
4C#X	6	4C#X	4e	4e	8aL
.	.	.	.	.	8gnJ
4D	.	4D	4A	4d	4f
2AA;	#	2AA;	2A;	2c#X;	2e;
=8	=8	=8	=8	=8	=8
!!linebreak:original
4D	.	4D	4A	4d	4f
4C	.	4Cn	4cn	4e	4g
4FF	-r7 5	4FF	4c	4e-X	4a
4FF#X	6 5	4FF#X	4c	4d	4a
=9	=9	=9	=9	=9	=9
4GG	-	4GG	8B-XL	2d	4g
.	.	.	8cJ	.	.
4GG#X	7 5	4GG#X	4d	.	4f
2AA;	#	2AA;	2A;	2c#X;	2e;
=10	=10	=10	=10	=10	=10
4F	6	4F	4A	4d	4a
8EL	#	8EL	4Bn	4e	4g#X
8DJ	.	8DJ	.	.	.
4C	6	4C	4c	4e	4a
4BB	#5\	4BB	4d	8f#XL	4b
.	#6\	.	.	8g#XJ	.
=11	=11	=11	=11	=11	=11
4AA	.	4AA	4e	4a	4cc
8BBL	nr6	8BBL	4d	4gn	4b
8CJ	.	8CJ	.	.	.
2D;	#	2D;	2d;	2f#X;	2a;
=12	=12	=12	=12	=12	=12
4E-X	6	4E-X	4c	4g	4cc
4D	-r6 4	4D	4B-X	4g	4dd
4C#X	6 5	4C#X	4A	4g	4ee
8DL	9	8DL	4A	4fn	4ee
8EnJ	.	8EnJ	.	.	.
=13	=13	=13	=13	=13	=13
8FL	6	8FL	8AL	4f	4dd
8GJ	.	8GJ	8BnJ	.	.
4A	5	4A	4c	8eL	4cc
.	#6\	.	.	8f#XJ	.
2G;	.	2G;	2d;	2g;	2b;
=14	=14	=14	=14	=14	=14
!!pagebreak:original
4F#X	6	4F#X	8dL	4a	4a
.	.	.	8cJ	.	.
4G#X	6 5	4G#X	4B	4e	4b
4A	.	4A	8AL	4e	4cc
.	.	.	8BJ	.	.
8AAL	.	8AAL	8cL	4e	4a
8BBJ	.	8BBJ	8dJ	.	.
=15	=15	=15	=15	=15	=15
4C#X	6 5	4C#X	4e	4A	8aL
.	.	.	.	.	8gJ
4D	.	4D	4A	4d	4f
2AA;	#	2AA;	2A;	2c#X;	2e;
=16	=16	=16	=16	=16	=16
4D	.	4D	4A	4d	4f
4C	.	4Cn	4cn	4e	4g
8FFL	.	8FFL	4c	4f	4a
8GG	.	8GG	.	.	.
8AA	6	8AA	4c	4f	4a
8BBJ	.	8BBJ	.	.	.
=17	=17	=17	=17	=17	=17
4C	.	4C	8cL	4e	4g
.	.	.	8BJ	.	.
4D	.	4D	4A	2d	4f
[2E	7 #	[2E	4G#X	.	[2e
.	6 4	.	4A	4c	.
=18	=18	=18	=18	=18	=18
1E;]	5 #	1E;]	1G#X;	1B;	1e;]
=||	=||	=||	=||	=||	=||
*-	*-	*-	*-	*-	*-
!!!system-decoration: s1,s2,s3,s4,s5
